X: 3756
T: Birkenburn
R: reel
M: 4/4
K: Gmajor
e2|:dBBd e2 ge|d2 Be dBBe|dBBd e2 ge|1 dBAB GEEe:|2 dBAB GEEf||
|:g2 gf gbag|fdad fddf|gfef gabg|agfa geef|
g2 gf gbag|fdad bdaf|geed efge|1 dBAB GEEf:|2 dBAB GE E2||

